%
O1000 (Bit tool.STEP)
(Generated by FBM System)
(Date: 2025-12-06 01:41:58)

(INITIALIZATION)
G21 (Metric)
G90 (Absolute positioning)
G54 (Work offset)
G94 (Feed per minute)
G40 (Cancel cutter comp)
G49 (Cancel length comp)
G80 (Cancel canned cycles)

(TOOL: FACE_MILL-50.0mm)
M6 T22 (FACE_MILL-50.0mm)
M3 S2000 (Spindle CW)
G43 H22 (Length offset)

(Face Top Surface)
G0 Z50.000
G0 Y0.000
G0 X0
G1 Z-2.000 F600
G1 X100.000 F1200
G0 Z5.000
G0 Y35.000
G0 X100.000
G1 Z-2.000 F600
G1 X0 F1200
G0 Z5.000
G0 Y70.000
G0 X0
G1 Z-2.000 F600
G1 X100.000 F1200
G0 Z5.000
G0 Z50.000

(TOOL: DRILL-8.0mm)
M6 T5 (DRILL-8.0mm)
M3 S3000 (Spindle CW)
G43 H5 (Length offset)

(Drill Hole 1)
G0 Z50.000
G0 X0.000 Y0.000
G81 Z-20.000 R5.000 F300
G80 (Cancel cycle)

(Drill Hole 2)
G0 Z50.000
G0 X0.000 Y0.000
G81 Z-20.000 R5.000 F300
G80 (Cancel cycle)

(TOOL: END_MILL-10.0mm)
M6 T8 (END_MILL-10.0mm)
M3 S5000 (Spindle CW)
G43 H8 (Length offset)

(Mill Pocket)
(Pass 1/3, depth: 5.000mm)
G0 X10.000 Y15.000
G0 Z5.000
G1 Z-5.000 F400
G3 X14.000 Y15.000 I4.000 J0 F800
G3 X18.000 Y15.000 I8.000 J0 F800
(Pass 2/3, depth: 10.000mm)
G3 X14.000 Y15.000 I4.000 J0 F800
G3 X18.000 Y15.000 I8.000 J0 F800
(Pass 3/3, depth: 15.000mm)
G3 X14.000 Y15.000 I4.000 J0 F800
G3 X18.000 Y15.000 I8.000 J0 F800
G0 Z50.000

(TOOL: CHAMFER_MILL-12.0mm)
M6 T59 (CHAMFER_MILL-12.0mm)
M3 S4000 (Spindle CW)
G43 H59 (Length offset)

(Chamfer Edges)
F500

(PROGRAM END)
M5 (Spindle stop)
M9 (Coolant off)
G0 Z50.000
G28 Z0 (Return Z to home)
M30 (Program end)
%